X:1
T:The Arrival of the Queen of Sheba
T:The Arrival of the Queen of Sheba
T:George Frederick Handel
%%score { 1 | 2 }
L:1/8
M:4/4
K:Bb
V:1 treble nm="Harp"
V:2 bass 
V:1
 b/f/d/f/ b/f/d/f/ b/f/d/f/ b/f/d/f/ | c/b/a/g/ f/e/d/c/ d/B/c/d/ e/f/g/a/ | %2
 b/f/d/f/ b/f/d/f/ b/=e/c/e/ b/g/c/g/ | a/g/f/g/ c=e f[Ac]/[Bd]/ [Ac]/[Bd]/[Ac]/[Bd]/ | %4
 c/A/F/A/ c/A/F/A/ f/d/B/d/ f/d/B/d/ | e/c/A/c/ e/c/A/c/ d/F/G/A/ B/c/d/e/ | %6
 f/d/B/d/ f/d/B/d/ f/c/A/c/ f/c/A/c/ | d/B/G/B/ d/B/G/B/ d/A/F/A/ d/A/F/A/ | %8
 b/g/e/g/ b/g/e/g/ b/f/d/f/ b/f/d/f/ | e/f/g/f/ e/d/c/B/ A/B/c/B/ A/G/F/E/ | %10
 D/F/E/G/ F/A/G/B/ A/c/B/d/ c/e/d/f/ | %11
 [ce]/[df]/[ce]/[df]/ [eg]/[df]/[ce]/[Bd]/ [Ac]/[Bd]/[Ac]/[Bd]/ [ce]/[df]/[ce]/[df]/ | %12
 [eg]/[df]/[eg]/[df]/ [ce]/[Bd]/[ce]/[Bd]/ [Ac]/[Bd]/[Ac]/[Bd]/ [ce]/[df]/[ce]/[df]/ | %13
 [eg]/[df]/[eg]/[df]/ [ce]/[Bd]/[ce]/[Bd]/ [Ac]/[Bd]/[Ac]/[Bd]/ [ce]/[Bd]/[ce]/[Ac]/ | %14
 d/f/e/g/ f/a/g/b/ ag/f/ be | dc/B/ FA [DFB]F B,2 || B/c/d/e/ dc Bf- fe | de/d/ ec d/e/f/g/ fe | %18
 de/d/ ec dc B2 | b/f/d/f/ b/f/d/f/ b/f/d/f/ b/f/d/f/ | c/b/a/g/ f/e/d/c/ dF B,2 | %21
 f2 g/f/e/d/ eg- gg | f/e/d/f/ e/d/c/e/ df- ff | e/d/c/e/ d/c/B/d/ cf A/B/c/d/ | %24
 cf A/B/c/d/ cf z2 | f/c/A/c/ f/c/A/c/ f/c/A/c/ f/c/f/a/ | g/f/=e/d/ c/B/A/G/ A/F/G/A/ B/c/d/e/ | %27
 f/g/a/b/ ag fc- cB | AB/A/ BG A/B/c/d/ c=e | fg/a/ bg ag f2 | cA cA cG cG | af af a=e ae | %32
 f/d/B/d/ f/d/B/d/ f/c/A/c/ f/c/A/c/ | B/c/d/c/ B/A/G/F/ =E2 z g | ag gf ba ag | %35
 a/b/a/g/ g/a/g/f/ g/a/g/f/ f/g/f/=e/ | %36
 [Bd]/[c=e]/[Bd]/[Ac]/ [GB]/[Ac]/[GB]/[FA]/ [=EG]/[FA]/[EG]/[FA]/ [GB]/[Ac]/[GB]/[Ac]/ | %37
 [Bd]/[Ac]/[Bd]/[Ac]/ [GB]/[FA]/[GB]/[FA]/ [=EG]/[FA]/[EG]/[FA]/ [GB]/[Ac]/[GB]/[Ac]/ | %38
 [Bd]/[Ac]/[Bd]/[Ac]/ [GB]/[FA]/[GB]/[FA]/ [=EG]/[FA]/[EG]/[FA]/ [GB]/[Ac]/[GB]/[Ac]/ | %39
 [FA]f G[B=e] fc F2 || d/e/f/g/ fe df- fe | de/d/ ec dc B2 | b/f/d/f/ b/f/d/f/ b/f/d/f/ b/f/d/f/ | %43
 c/b/a/g/ f/e/d/c/ d/B/c/d/ B z | dc cB ed dc | d/e/d/c/ c/d/c/B/ c/d/c/B/ B/c/B/A/ | %46
 B/c/d/e/ dc Bb- ba | ga/g/ a^f gd Bd | g/d/B/d/ g/d/B/d/ g/d/B/d/ g/d/g/b/ | %49
 a/g/^f/=e/ d/c/B/A/ B/G/A/B/ c/d/e/f/ | [dg]2 G2 g/e/c/e/ [Ag]/e/c/e/ | %51
 [cf]d/e/ fc f/d/B/d/ f/d/B/d/ | [Be]c/d/ eB e/c/A/c/ e/c/A/c/ | [Ad]B/c/ dA g/d/B/d/ g/d/B/d/ | %54
 [c^f]A- AB/c/ d/B/G/B/ d/B/G/ z/ | [Ee]c =Bc a/^f/d/f/ a/f/d/f/ | %56
 g/d/B/d/ g/d/B/d/ [Gcg]f/e/ [DGd]c | [DGB]2 [CA]2 [B,DG]2 z2 || %58
 b/g/e/g/ b/g/e/g/ b/f/d/f/ b/f/d/f/ | g/e/c/e/ g/e/c/e/ g/d/B/d/ g/d/B/d/ | %60
 e/c/_A/c/ e/c/A/c/ e/B/G/B/ e/B/G/B/ | _a/g/f/e/ d/c/B/_A/ GE GB | [EG]/_A/B/c/ BA Gg- gf | %63
 ef/e/ fd eb- b_a | g_a/g/ af gf e2 | B/G/E/G/ B/G/E/G/ c/G/=E/G/ c/G/E/G/ | %66
 c/A/F/A/ c/A/F/A/ d/A/^F/A/ d/A/F/A/ | d/B/G/B/ d/B/G/B/ e/B/G/B/ e/B/G/B/ | %68
 e/c/_A/c/ e/c/A/c/ f/c/=A/c/ f/c/A/c/ | d/e/f/g/ fe df- fe | de/d/ ec dc BA | dc- cB ed- dc | %72
 d/e/f/g/ fB AB- Bc | FB [DB]2 A/B/c- cd | Gc ec =B/c/d- dG | [Ec]2 [Gd]2 e=B c2 | %76
 [Fc]2 [FA]2 dA B2 | [DF]2 [DA]2 GA/B/ c2 | GB BG [FA]2 z2 | f/d/B/d/ f/d/B/d/ f/c/A/c/ f/c/A/c/ | %80
 d/B/G/B/ d/B/G/B/ d/A/F/A/ d/A/F/A/ | b/g/e/g/ b/g/e/g/ b/f/d/f/ b/f/d/f/ | %82
 e/f/g/f/ e/d/c/B/ A/B/c/B/ A/G/F/E/ | D/F/E/G/ F/A/G/B/ A/c/B/d/ c/e/d/f/ | %84
 [ce]/[df]/[ce]/[df]/ [eg]/[df]/[ce]/[Bd]/ [Ac]/[Bd]/[Ac]/[Bd]/ [ce]/[df]/[ce]/[df]/ | %85
 [eg]/[df]/[eg]/[df]/ [ce]/[Bd]/[ce]/[Bd]/ [Ac]/[Bd]/[Ac]/[Bd]/ [ce]/[df]/[ce]/[df]/ | %86
 [eg]/[df]/[eg]/[df]/ [ce]/[Bd]/[ce]/[Bd]/ [Ac]/[Bd]/[Ac]/[Bd]/ [ce]/[Bd]/[ce]/[Ac]/ | %87
 d/f/e/g/ f/a/g/b/ ag/f/ be | dc/B/ FA B2 z2 |] %89
V:2
 B,D A,D G,D F,D | [E,B,C]2 [F,A,C]2 B,2 [B,,B,]2 | F,D, G,G,, G,C, CC, | %3
 F,B, CC, D,2 A,,[I:staff -1]C, |[I:staff +1] [F,C]2 [E,F,C]2 [D,F,B,]2 [G,B,]2 | %5
 [C,G,]A,/G,/ [F,A,][F,C] B,2 B,,2 | B,F, B,F, A,F, A,F, | G,D, G,D, F,D, F,D, | %8
 E,B,, E,B,, D,B, D,B, | [C,G,]E,/F,/ G,/F,/E,/D,/ C,A,,/B,,/ C,/B,,/A,,/G,,/ | %10
 [B,,B,][C,B,] [D,B,][E,B,] [F,F][G,F] [A,F][B,F] | [E,E]2 [E,C]2 [F,C]2 [F,A,]2 | %12
 F,A, F,A, A,C A,C | F,C F,C A,C A,C | [B,,F,][C,A,] [D,B,]E, F,E, D,E, | F,E, F,F,, [B,,B,]2 z2 || %16
 z8 | z8 | z8 | B,D A,D G,D F,D | E,C F,C B,2 z2 | z8 | z8 | z8 | z8 | [F,A,]C =E,A, D,A, C,A, | %26
 [B,,D,]F, C,=E, F,[B,,D,][A,,C,][G,,B,,] | [F,,A,,C,]2 z2 z4 | z8 | z8 | F,C F,C =E,C E,C | %31
 D,A, D,A, C,A, C,A, | B,,F, B,,F, A,,F, A,,F, | [G,,G,]D, [G,,G,]D, C,2 z2 | z8 | z8 | %36
 [B,,F,]2 [B,,G,]2 [C,G,]2 [C,=E,]2 | C,=E, C,G, E,G, C,E, | C,=E, C,G, E,G, C,E, | %39
 F,D, B,,C, F,,2 z2 || z8 | z8 | B,D A,D G,D F,D | E,C F,C [B,,B,]2 z/ D/E/F/ | B,2 z2 z4 | z8 | %46
 z8 | z8 | [B,,G,]D, B,,D, E,G, [D,B,]B,, | [C,G,A,]2 [D,^F,A,]2 [G,,G,]2 z2 | %50
 =B,D B,D [G,C]2 [E,G,C]2 | [F,A,C]2 [C,F,A,]2 [D,F,B,]2 [B,,D,F,]2 | %52
 [B,,E,G,]2 [B,,E,G,]2 [C,E,A,]2 [C,E,A,]2 | [A,,D,^F,]2 [A,,D,F,]2 [D,G,B,]2 [D,G,B,]2 | %54
 A,C A,C B,D B,D | CE DC [^F,D][A,D] CF, | B,A, G,F, E,G, [B,,G,]C, | D,C, D,D,, G,,2 z2 || %58
 EB, EB, DB, DB, | CG, CG, B,G, B,G, | _A,E, A,E, G,E, G,E, | [C,E,F,]2 [B,,F,]2 [B,,E,]2 z2 | z8 | %63
 z8 | z8 | [E,G,]2 z2 [=E,G,]2 z2 | [F,A,]2 z2 [^F,A,]2 z2 | [G,B,]2 z2 [G,B,]2 z2 | %68
 [_A,C]2 z2 [=A,C]2 z2 | [B,,F,B,]2 z4 z2 | z8 | z8 | z8 | B,/F,/D,/F,/ B,/F,/D,/F,/ [C,F,]2 x2 | %74
 C/G,/E,/G,/ C/G,/E,/G,/ [D,G,]2 [G,D]2 | E/C/G,/C/ D/=B,/G,/B,/ [C,G,]2 [C,C]2 | %76
 C/A,/F,/A,/ C/A,/F,/A,/ [F,B,]2 B,,C, | z8 | =E,/G,/C/G,/ E,/G,/E,/C,/ F,/A,/C/A,/ F,/A,/C/A,/ | %79
 B,F, B,F, A,F, A,F, | G,D, G,D, F,D, F,D, | E,B,, E,B,, [D,B,]F, [D,B,]F, | %82
 [C,G,]E,/F,/ G,/F,/E,/D,/ C,A,,/B,,/ C,/B,,/A,,/G,,/ | %83
 [B,,F,]C,/E,/ [D,B,][E,B,] [F,F][G,F] [A,F][B,F] | E,G, CG, C,F, A,F, | F,,A,, F,A, F,,A,, F,A, | %86
 F,,A,, C,E, F,A, CA, | [B,,F,][C,A,] [D,B,][E,G,] F,E, D,E, | F,E, F,F,, B,,2 B,,,2 |] %89

